X:1
T:The Butterfly                                                                                     
M:9/8                                                                                               
K:Em                                                                                                
|:B2 E GFE F3|B2 E G2 E FED|B2 E GFE F3|B2 d d2 B AFD :|                                            
B2 c e2 f g3|B2 c g2 e dBG|B2 c e2 f g2 a|b2 a g2 e dBG :|                                          
B2 E BBA G2 A|B3 BAB dBA|B2 E BBA G2 A|B2 d g2 e dBA :|
